!!!OTL: BIN EIN LUSTGER GRENADIER
!!!ARE: Europa, Mitteleuropa, Deutschland, Berlin
!!!SCT: E1327A
!!!YEM: Copyright 1995, estate of Helmut Schaffrath.
**kern
*ICvox
*Ivox
*M2/4
*k[f#]
*G:
=1
{8b
8g
8g
8e
=2
8e
8d
4d}
=3
{8a
8cc
4a
=4
8d
8b
4g}
=5
{8b
8g
8g
8e
=6
8e
8d
4d}
=7
{8d
8cc
8a
8f#
=8
4g
8r}
{8b
=9
8.a
16b
8a
8b
=10
8a
8b
4a}
=11
{8a
8a
8b
8cc#
=12
8dd
8d
4d}
=13
{8g
8g
4b
=14
8b
8dd
4dd}
=15
{8dd
8cc
8cc
8cc
=16
8ee
8dd
4dd}
=17
{8g
8g
4b
=18
8b
8b
4dd}
=19
{8dd
8cc
8a
8f#
=20
4g
4r}
==
!!!AGN: Staende -, Soldaten -, Kriegs - Lied
!!!ONB: ESAC (Essen Associative Code) Database: ERK3
!!!AMT: simple duple
!!!AIN: vox
!!!EED: Helmut Schaffrath
!!!EEV: 1.0
*-
